packages/ffe-icons/icons/filled/lg/view_comfy_alt.svg

<svg xmlns="http://www.w3.org/2000/svg" height="40" viewBox="0 -960 960 960" width="40"><path d="M348.976-560h-197.95q-21.089 0-36.057-14.968-14.968-14.967-14.968-36.056v-197.95q0-21.089 14.968-36.057 14.968-14.968 36.057-14.968h197.95q21.089 0 36.056 14.968Q400-830.063 400-808.974v197.95q0 21.089-14.968 36.056Q370.065-560 348.976-560Zm0 459.999h-197.95q-21.089 0-36.057-14.968-14.968-14.968-14.968-36.057v-197.95q0-21.089 14.968-36.056Q129.937-400 151.026-400h197.95q21.089 0 36.056 14.968Q400-370.065 400-348.976v197.95q0 21.089-14.968 36.057-14.967 14.968-36.056 14.968ZM808.974-560h-197.95q-21.089 0-36.056-14.968Q560-589.935 560-611.024v-197.95q0-21.089 14.968-36.057 14.967-14.968 36.056-14.968h197.95q21.089 0 36.057 14.968 14.968 14.968 14.968 36.057v197.95q0 21.089-14.968 36.056Q830.063-560 808.974-560Zm0 459.999h-197.95q-21.089 0-36.056-14.968Q560-129.937 560-151.026v-197.95q0-21.089 14.968-36.056Q589.935-400 611.024-400h197.95q21.089 0 36.057 14.968 14.968 14.967 14.968 36.056v197.95q0 21.089-14.968 36.057-14.968 14.968-36.057 14.968Z"/></svg>

<svg xmlns="http://www.w3.org/2000/svg" viewBox="0 -960 960 960" width="32" height="32"><path d="M348.98-560H151.03q-21.09 0-36.06-14.97Q100-589.94 100-611.02v-197.95q0-21.09 14.97-36.06Q129.94-860 151.03-860h197.95q21.08 0 36.05 14.97Q400-830.06 400-808.97v197.95q0 21.08-14.97 36.05Q370.06-560 348.98-560Zm0 460H151.03q-21.09 0-36.06-14.97Q100-129.94 100-151.03v-197.95q0-21.08 14.97-36.05Q129.94-400 151.03-400h197.95q21.08 0 36.05 14.97Q400-370.06 400-348.98v197.95q0 21.09-14.97 36.06Q370.06-100 348.98-100Zm459.99-460H611.02q-21.08 0-36.05-14.97Q560-589.94 560-611.02v-197.95q0-21.09 14.97-36.06Q589.94-860 611.02-860h197.95q21.09 0 36.06 14.97Q860-830.06 860-808.97v197.95q0 21.08-14.97 36.05Q830.06-560 808.97-560Zm0 460H611.02q-21.08 0-36.05-14.97Q560-129.94 560-151.03v-197.95q0-21.08 14.97-36.05Q589.94-400 611.02-400h197.95q21.09 0 36.06 14.97Q860-370.06 860-348.98v197.95q0 21.09-14.97 36.06Q830.06-100 808.97-100Z"/></svg>
